X:35
T:Se ome fezer (Cantiga 207)
C:Las Cantigas de Santa Maria
C:Alphonso X, El Sabio (1221-1284)
C:arr Steve Hendricks
R:Cantigas
M:C|
L:1/4
K:F
V:1
FG |: G/A/ccc/B/ | AGAc | cF/G/ A/B/A/G/ |1 A2FG :|2 F2 ff |:
fccA | Bccd | cBA/B/A/G/ |1 A2ff :|2 F2FG |:
G/A/ccc/B/ | AGAc | cF/G/ A/B/A/G/ |1 A2FG :|2 F4 |]
V:2
C2 |: F2F2 | C2C/D/F | F2C2 | F2C2 :| F2FF |:
F2A/G/F | G2G,/A,/B, | C2CD | F2FF :| F2C2 |:
F2F2 | C2C/D/F | F2C2 | F2C2 :| F4 |]
V:3
C,2 |: F,2F,2 | C,2C,/D,/F, | F,2C,2 | F,2C,2 :| F,2F,F, |:
F,2A,/G,/F, | G,2G,,/A,,/B,, | C,2C,D, | F,2F,F, :| F,2C,2 |:
F,2F,2 | C,2C,/D,/F, | F,2C,2 | F,2C,2 :| F,4 |]






